svg/300/outlined/trail_length_medium.svg

<svg xmlns="http://www.w3.org/2000/svg" width="48" height="48" viewBox="0 -960 960 960"><path d="M278.846-290.001v-45.383h239.155q-27.154-22.539-44.846-54.116-17.693-31.577-22.268-67.808H210.001v-45.384h240.846q4.231-32.462 21.231-66.039t45.923-55.885h-228v-45.383H640q78.85 0 134.424 55.558 55.575 55.558 55.575 134.384t-55.575 134.441Q718.85-290.001 640-290.001H278.846Zm360.919-45.383q60.158 0 102.504-42.111 42.347-42.111 42.347-102.27 0-60.158-42.111-102.504-42.111-42.347-102.27-42.347-60.158 0-102.504 42.111-42.347 42.111-42.347 102.27 0 60.158 42.111 102.504 42.111 42.347 102.27 42.347Zm-509.764 45.383v-45.383h116.153v45.383H130.001ZM640-480Z"/></svg>

<svg xmlns="http://www.w3.org/2000/svg" width="48" height="48" viewBox="0 -960 960 960"><path d="M278.85-290v-45.38H518q-27.15-22.54-44.85-54.12-17.69-31.58-22.26-67.81H210v-45.38h240.85q4.23-32.46 21.23-66.04 17-33.58 45.92-55.89H290V-670h350q78.85 0 134.42 55.56Q830-558.88 830-480.06q0 78.83-55.58 134.44Q718.85-290 640-290H278.85Zm360.91-45.38q60.16 0 102.51-42.12 42.35-42.11 42.35-102.26 0-60.16-42.12-102.51-42.11-42.35-102.26-42.35-60.16 0-102.51 42.12-42.35 42.11-42.35 102.26 0 60.16 42.12 102.51 42.11 42.35 102.26 42.35ZM130-290v-45.38h116.15V-290H130Zm510-190Z"/></svg>
